X:1
T:Title
%%score { ( 1 3 ) | ( 2 4 5 ) }
L:1/8
Q:1/4=100
M:4/4
K:Ab
V:1 treble nm="Grand Piano"
V:3 treble 
V:2 bass 
V:4 bass 
V:5 bass 
V:1
 [CE]>[_C=D] [=CE]>[_DF] [CE]2 [Ec]2 | z2 =D6[K:bass] | D>C D>E[K:treble] G2 F2 | [A,CF]6 z2 | %4
w: C.~Harold~Lowden * * * * *||||
 [CE]>[_C=D] [=CE]>[_DF] [CE]2 [Ec]2 | [Ec]2 [EB]6 | %6
w: ||
 [B,=DB]>[A,DF] [G,_D=E]>[A,=DF] [B,DG]2 [DA]2 |[M:2/4] [DB]4 | %8
w: ||
[M:11/16] [Ge]/-[Ge]/-[Ge]/-[Ge]/-[Ge]/-[Ge]-<[Ge][Fd] | %9
w: |
[M:4/4] [Ec]>[=D_c] [E=c]>[Fd] [Ec]2 [CE]2 | [B,=D]2 [DB]4 [D=A]>[DB] | [Dc]>B z z/ A,/ B,2 [Fd]2 | %12
w: |||
[M:39/32] z/4 z/4 z/4 z/4 z/4 z/4 z/[K:bass] E/4-E/4-E/4-E/4-E/4-E/4-E/4-E/4-E/4-E/4-E/4-E/4-E/4-E/4-E/4-E/4-E/-<E/[K:treble][Ge]/4-[Ge]/4-[Ge]/4-[Ge]/4-[Ge]/4-[Ge]/4-[Ge]/-<[Ge]/ z/4 | %13
w: |
[M:4/4] z4 c2- c/4 z/4 z/ z | z4 (3:2:2[=D=A]3 [DB]3 | z4 (3:2:2c3 B3 | [CA]6- [CA]/4 z/4 z/ z |] %17
w: ||||
V:2
 [A,,A,]>[A,,A,] [A,,A,]>[A,,A,] [A,,A,]2 [A,,A,]2 | [B,,A,]2 [B,,A,B,]6 | %2
 [E,G,B,]>[E,_G,=A,] [E,=G,B,]>[E,G,C] [E,B,D]2 [E,G,D]2 | z2 E,2 F,2 G,2 | %4
 [A,,A,]>[A,,A,] [A,,A,]>[A,,A,] [A,,A,]2 [=A,,_G,]2 | [B,,G,]2 z2 C2 B,2 | %6
 B,,>B,, B,,>B,, B,,2 [B,,F,]2 |[M:2/4] [E,G,]4 | %8
[M:11/16] [C,B,]/-[C,B,]/-[C,B,]/-[C,B,]/-[C,B,]/-[C,B,]-<[C,B,][E,G,] | %9
[M:4/4] [A,,A,]>[A,,A,] [A,,A,]>[A,,A,] [A,,A,]2 [A,,A,]2 | [B,,A,]2 [B,,A,]4 [B,,A,]>[B,,A,] | %11
 z2 D4 z2 | %12
[M:39/32] z/4 z/4 z/4 z/4 z/4 z/4 z/ C/4-C/4-C/4-C/4-C/4-C/4-C/4-C/4-C/4-C/4-C/4-C/4-C/4-C/4-C/4-C/4-C/-<C/ z/4 z/4 z/4 z/4 z/4 z/4 z/4 z/4 z/4 z/ | %13
[M:4/4] (5:4:5[A,,A,]2 [A,,A,]/ [A,,A,]/-[A,,A,]3/2[A,,A,]/ [A,,A,]2 [A,,A,]2 | %14
 (3:2:2[B,,A,]3 [B,,A,]3 z4 | z4 (3:2:2[E,G,E]3 [E,D]3 | [A,,E,]6- [A,,E,]/4 z/4 z/ z |] %17
V:3
 x8 | [=Dc]2 z2 C2[K:bass] =D,2 | x4[K:treble] x4 | x8 | x8 | x8 | x8 |[M:2/4] x4 | %8
[M:11/16] x11/2 |[M:4/4] x8 | x8 | z2 E4 z2 | %12
[M:39/32] [Ec]/4-[Ec]/4-[Ec]/-<[Ec]/A/[K:bass] z/4 z/4 z/4 z/4 z/ F,/E,/4-E,/4-E,/4-E,/4-E,/4-E,/4-E,/4-E,/4-E,/-<E,/[K:treble] z/4 z/4 z/4 z/4 z/4 z/4 z/ [Fd]3/4 | %13
[M:4/4] (5:4:5[Ec]2 [=D_c]/ [E=c]/-[Ec]3/2[Fd]/ E2 [CE]2 | (3:2:2[B,=D]3 [DB]3 z4 | %15
 (3:2:2[Fd]3 [Fd]3 z4 | x8 |] %17
V:4
 x8 | x8 | x8 | A,,6 z2 | x8 | z2 [B,,G,]6 | x8 |[M:2/4] x4 |[M:11/16] x11/2 |[M:4/4] x8 | x8 | %11
 z z/ D/ z z/ F,/ G,2 [E,G,]2 | %12
[M:39/32] z/4 z/4 z/4 z/4 z/ C/ z/4 z/4 z/4 z/4 z/ A,,/A,,/4-A,,/4-A,,/4-A,,/4-A,,/4-A,,/4-A,,/4-A,,/4-A,,/-<A,,/E,/4-E,/4-E,/4-E,/4-E,/-<E,/[E,G,]3/4 | %13
[M:4/4] x8 | z4 (3:2:2[B,,A,]3 [B,,A,]3 | (3:2:2[E,G,]3 [E,G,]3 z4 | x8 |] %17
V:5
 x8 | x8 | x8 | x8 | x8 | x8 | x8 |[M:2/4] x4 |[M:11/16] x11/2 |[M:4/4] x8 | x8 | [E,G,]4 z4 | %12
[M:39/32] [A,,A,]/4-[A,,A,]/4-[A,,A,]/4-[A,,A,]/4-[A,,A,]/4-[A,,A,]/4-[A,,A,]/4-[A,,A,]/4-[A,,A,]/4-[A,,A,]/4-[A,,A,]/-<[A,,A,]/ z/4 z/4 z/4 z/4 z/4 z/4 z/4 z/4 z/4 z/4 z/4 z/4 z/4 z/4 z/4 z/4 z/4 z/4 z/4 z/4 z/4 z/4 z/4 z/ | %13
[M:4/4] x8 | x8 | x8 | x8 |] %17

